symbols/web/bookmark/materialsymbolsrounded/bookmark_wght600grad200fill1_40px.svg

<svg xmlns="http://www.w3.org/2000/svg" height="40" width="40"><path d="M10.083 35.292q-1 .416-1.916-.167-.917-.583-.917-1.625V7.75q0-1.667 1.208-2.854 1.209-1.188 2.834-1.188h17.416q1.625 0 2.834 1.188Q32.75 6.083 32.75 7.75V33.5q0 1.042-.917 1.625-.916.583-1.875.167L20 31.083Z"/></svg>

<svg xmlns="http://www.w3.org/2000/svg" height="40" width="40"><path d="M10.083 35.292Q9.083 35.708 8.167 35.125Q7.25 34.542 7.25 33.5V7.75Q7.25 6.083 8.458 4.896Q9.667 3.708 11.292 3.708H28.708Q30.333 3.708 31.542 4.896Q32.75 6.083 32.75 7.75V33.5Q32.75 34.542 31.833 35.125Q30.917 35.708 29.958 35.292L20 31.083Z"/></svg>
